svgs/duotone/tablet-button.svg

<svg xmlns="http://www.w3.org/2000/svg" viewBox="0 0 448 512"><!-- Font Awesome Pro 6.0.0-alpha2 by @fontawesome - https://fontawesome.com License - https://fontawesome.com/license (Commercial License) --><defs><style>.fa-secondary{opacity:.4}</style></defs><path d="M0 384V448C0 483.346 28.654 512 64 512H384C419.346 512 448 483.346 448 448V384H0ZM224 480C206.25 480 192 465.75 192 448S206.25 416 224 416S256 430.25 256 448S241.75 480 224 480Z" class="fa-secondary"/><path d="M448 64V384H0V64C0 28.652 28.654 0 64 0H384C419.346 0 448 28.652 448 64Z" class="fa-primary"/></svg>

<svg xmlns="http://www.w3.org/2000/svg" viewBox="0 0 448 512"><!--! Font Awesome Pro 6.3.0 by @fontawesome - https://fontawesome.com License - https://fontawesome.com/license (Commercial License) Copyright 2023 Fonticons, Inc. --><defs><style>.fa-secondary{opacity:.4}</style></defs><path class="fa-primary" d="M448 64v320H0V64c0-35.35 28.65-64 64-64h320C419.3 0 448 28.65 448 64z"/><path class="fa-secondary" d="M0 384v64c0 35.35 28.65 64 64 64h320c35.35 0 64-28.65 64-64v-64H0zM224 480c-17.75 0-32-14.25-32-32s14.25-32 32-32s32 14.25 32 32S241.8 480 224 480z"/></svg>
